icons/Business/mail-send-line.svg

<svg viewBox="0 0 24 24" xmlns="http://www.w3.org/2000/svg"><path d="M21 3C21.5523 3 22 3.44772 22 4V20.0066C22 20.5552 21.5447 21 21.0082 21H2.9918C2.44405 21 2 20.5551 2 20.0066V19H20V7.3L12 14.5L2 5.5V4C2 3.44772 2.44772 3 3 3H21ZM8 15V17H0V15H8ZM5 10V12H0V10H5ZM19.5659 5H4.43414L12 11.8093L19.5659 5Z"/></svg>

<svg xmlns="http://www.w3.org/2000/svg" viewBox="0 0 24 24">
    <g>
        <path fill="none" d="M0 0h24v24H0z"/>
        <path d="M22 20.007a1 1 0 0 1-.992.993H2.992A.993.993 0 0 1 2 20.007V19h18V7.3l-8 7.2-10-9V4a1 1 0 0 1 1-1h18a1 1 0 0 1 1 1v16.007zM4.434 5L12 11.81 19.566 5H4.434zM0 15h8v2H0v-2zm0-5h5v2H0v-2z"/>
    </g>
</svg>
